packages/katcn/src/icons/svg/rain.svg

<svg width="24" height="25" viewBox="0 0 24 25" fill="none" xmlns="http://www.w3.org/2000/svg">
<path d="M15.2 1.96796C10.9 1.96796 7.4 5.46796 7.4 9.76796C7.4 10.368 7.8 10.768 8.4 10.768C9 10.768 9.4 10.368 9.4 9.76796C9.4 6.56796 12 3.96796 15.2 3.96796C18.4 3.96796 21 6.56796 21 9.76796C21 12.968 18.4 15.568 15.2 15.568H7C4.8 15.568 3 13.768 3 11.568C3 9.76796 4.2 8.16796 5.9 7.76796C6.4 7.56796 6.7 7.06796 6.6 6.56796C6.4 5.96796 5.9 5.66796 5.4 5.86796C2.8 6.56796 1 8.96796 1 11.568C1 14.868 3.7 17.568 7 17.568H15.2C19.5 17.568 23 14.068 23 9.76796C23 5.46796 19.5 1.96796 15.2 1.96796Z" fill="black"/>
<path d="M12.4 18.4679C11.9 18.2679 11.3 18.3679 11.1 18.8679L9.30001 22.4679C9.00001 22.9679 9.20001 23.5679 9.70001 23.8679C9.80001 23.9679 10 23.9679 10.2 23.9679C10.6 23.9679 10.9 23.7679 11.1 23.4679L12.9 19.8679C13.1 19.2679 12.9 18.6679 12.4 18.4679Z" fill="black"/>
<path d="M17 18.4679C16.5 18.2679 15.9 18.3679 15.7 18.8679L13.9 22.4679C13.7 22.9679 13.8 23.5679 14.3 23.7679C14.4 23.8679 14.6 23.8679 14.8 23.8679C15.2 23.8679 15.5 23.6679 15.7 23.3679L17.5 19.7679C17.7 19.2679 17.5 18.6679 17 18.4679Z" fill="black"/>
<path d="M7.9 18.4679C7.4 18.2679 6.8 18.3679 6.6 18.8679L4.8 22.4679C4.6 22.9679 4.7 23.5679 5.2 23.7679C5.3 23.9679 5.5 23.9679 5.6 23.9679C6 23.9679 6.3 23.7679 6.5 23.4679L8.3 19.8679C8.6 19.2679 8.4 18.6679 7.9 18.4679Z" fill="black"/>
</svg>

<svg xmlns="http://www.w3.org/2000/svg" fill="none" viewBox="0 0 24 25"><path fill="#000" d="M15.2 1.968c-4.3 0-7.8 3.5-7.8 7.8 0 .6.4 1 1 1s1-.4 1-1c0-3.2 2.6-5.8 5.8-5.8s5.8 2.6 5.8 5.8-2.6 5.8-5.8 5.8H7c-2.2 0-4-1.8-4-4 0-1.8 1.2-3.4 2.9-3.8.5-.2.8-.7.7-1.2-.2-.6-.7-.9-1.2-.7-2.6.7-4.4 3.1-4.4 5.7 0 3.3 2.7 6 6 6h8.2c4.3 0 7.8-3.5 7.8-7.8s-3.5-7.8-7.8-7.8m-2.8 16.5c-.5-.2-1.1-.1-1.3.4l-1.8 3.6c-.3.5-.1 1.1.4 1.4.1.1.3.1.5.1.4 0 .7-.2.9-.5l1.8-3.6c.2-.6 0-1.2-.5-1.4m4.6 0c-.5-.2-1.1-.1-1.3.4l-1.8 3.6c-.2.5-.1 1.1.4 1.3.1.1.3.1.5.1.4 0 .7-.2.9-.5l1.8-3.6c.2-.5 0-1.1-.5-1.3m-9.1 0c-.5-.2-1.1-.1-1.3.4l-1.8 3.6c-.2.5-.1 1.1.4 1.3.1.2.3.2.4.2.4 0 .7-.2.9-.5l1.8-3.6c.3-.6.1-1.2-.4-1.4"/></svg>
